hackathon/svg-icons/src/components/icons/source/fetal-cloning.svg

<svg fill="none" height="256" viewBox="0 0 256 256" width="256" xmlns="http://www.w3.org/2000/svg"><path d="m221.081 107.146-18.803-6.267v-11.6013c0-19.6999-7.826-38.5933-21.756-52.5219-13.929-13.9303-32.822-21.7558-52.522-21.7558s-38.5933 7.8255-52.5219 21.7558c-13.9302 13.9286-21.7558 32.8216-21.7558 52.5219v11.6013l-18.8032 6.267c-1.4432.482-2.4175 1.832-2.4191 3.354v42.444c.0016 1.522.9759 2.872 2.4191 3.354l18.8032 6.267v57.583c-3.7912 0-7.2935 2.023-9.1898 5.306-1.8948 3.282-1.8948 7.328 0 10.611 1.8965 3.283 5.3986 5.305 9.1898 5.305h148.5557c3.791 0 7.293-2.022 9.189-5.305 1.895-3.283 1.895-7.329 0-10.611-1.896-3.283-5.398-5.306-9.189-5.306v-57.583l18.803-6.267c1.443-.482 2.417-1.832 2.419-3.354v-42.444c-.002-1.522-.976-2.872-2.419-3.354zm-76.978 70.203 4.276 2.122c.516.259.843.788.842 1.366.004.507-.247.984-.668 1.266-.419.281-.948.34-1.415.155l-2.122-.856c-4.949-1.97-9.181-5.403-12.129-9.84-1.044-1.559-2.68-2.62-4.529-2.939-.377-.066-.761-.099-1.144-.099-1.482.001-2.922.48-4.107 1.365-5.003 3.751-11.504 4.869-17.471 3.004-5.9688-1.865-10.6772-6.484-12.6543-12.416l-1.5175-4.553c-1.4022-4.232-1.4022-8.804 0-13.036 5.0024-14.925 14.8128-27.769 27.8968-36.52.193-.13.373-.278.537-.442l3.537-3.537c.388-.39.682-.862.856-1.384l1.443-4.3434c1.481-4.4292 4.66-8.0911 8.838-10.1802 4.178-2.089 9.013-2.4348 13.445-.9616l2.505.8385c4.012 1.3374 7.396 4.0944 9.518 7.7515 2.124 3.6571 2.838 7.9632 2.009 12.1092l-1.301 6.515c-.473 2.364-1.752 4.493-3.616 6.02-1.867 1.527-4.205 2.36-6.617 2.356h-1.294c-.548 0-1.09.126-1.581.371l-4.124 2.065c-1.45.723-3.046 1.099-4.666 1.101h-1.535c-2.76-.007-5.407-1.102-7.365-3.049l-2.989-2.989h.002c-1.013-1.011-2.533-1.314-3.855-.766-1.321.548-2.184 1.836-2.184 3.267v4.145c-.015 5.465-2.185 10.703-6.038 14.576-.807.808-1.173 1.958-.984 3.084.188 1.126.91 2.092 1.936 2.594l20.791 10.141c3.024 1.478 5.341 4.094 6.441 7.276 1.103 3.182.899 6.67-.566 9.701-.855 1.745-.141 3.855 1.599 4.722zm-18.339-34.851-2.776-1.355c.425-.608.79-1.258 1.164-1.899l16.157 2.016h-.002c6.035.764 12.159.395 18.056-1.089l.4-.1.001.002c3.346-.842 6.782-1.27 10.232-1.278h1.447c2.785.01 5.517-.761 7.886-2.225 2.368-1.465 4.279-3.564 5.515-6.058l.747-1.492c.654-1.317 1.661-2.426 2.912-3.198 1.25-.772 2.692-1.18 4.162-1.175h3.537v3.951c-4.291 1.033-7.904 3.914-9.864 7.87l-.747 1.492c-.653 1.317-1.661 2.425-2.911 3.198-1.251.772-2.693 1.179-4.163 1.174h-8.52c-4.027.002-8.039.496-11.946 1.472-5.293 1.328-10.794 1.611-16.196.831zm56.928-92.1285h-6.978c-7.292-9.0621-17.202-15.6531-28.378-18.874l-4.481-1.2869 1.528-6.013c15.469 3.9082 29.045 13.1849 38.309 26.1741zm-45.274-27.5541-1.569 6.3319h-15.699l-1.585-6.3319h.001c6.25-.99 12.617-.99 18.866 0zm-25.82 1.3612 1.546 6.0319-4.467 1.2727c-11.1847 3.2212-21.0993 9.8184-28.3929 18.8885h-6.9778c9.2642-12.9891 22.8407-22.2659 38.3087-26.174zm-72.0262 88.8744 3.537-1.181v39.706l-3.537-1.181zm10.6111 40.88v-44.417l3.537-1.178v46.774zm155.6291 76.828c0 .938-.372 1.838-1.036 2.502-.663.663-1.563 1.035-2.501 1.035h-148.5551c-1.9532 0-3.537-1.583-3.537-3.537 0-1.953 1.5838-3.537 3.537-3.537h148.5551c.938 0 1.838.373 2.501 1.036.664.663 1.036 1.563 1.036 2.501zm-145.018-10.611v-130.8699c-.0111-11.1147 2.7522-22.0557 8.0406-31.8332h13.1816c1.1132 0 2.1617-.5243 2.8296-1.4149 6.4346-8.5474 15.4742-14.7702 25.7572-17.7276l7.283-2.0795h20.224l7.282 2.0795c10.283 2.9576 19.323 9.1806 25.758 17.7276.668.8906 1.716 1.4149 2.829 1.4149h13.182c5.288 9.7775 8.051 20.7185 8.041 31.8332v28.2959h-3.537c-2.786-.009-5.517.761-7.886 2.225-2.369 1.466-4.279 3.564-5.516 6.059l-.747 1.492c-.654 1.317-1.661 2.425-2.912 3.198-1.25.772-2.692 1.179-4.162 1.174h-1.446c-4.027.002-8.039.496-11.946 1.472l-.402.1c-5.052 1.264-10.294 1.58-15.461.933l-14.173-1.769c.327-1.176.575-2.373.744-3.583 2.842 1.849 6.158 2.839 9.55 2.851h1.535c2.714-.005 5.392-.635 7.824-1.843l3.388-1.698h.46c4.042 0 7.961-1.402 11.088-3.965 3.126-2.562 5.269-6.129 6.063-10.094l1.301-6.515c1.172-5.837.172-11.8987-2.814-17.0478-2.985-5.1507-7.749-9.0305-13.396-10.9126l-2.505-.8385c-6.21-2.0654-12.987-1.5822-18.842 1.3454-5.855 2.9275-10.308 8.0595-12.383 14.2665l-1.181 3.5544-2.702 2.7016v.002c-14.242 9.624-24.9214 23.67-30.3866 39.968-1.8822 5.686-1.8822 11.829 0 17.515l1.5174 4.552c2.6844 8.044 9.0512 14.319 17.1312 16.886 8.081 2.568 16.902 1.118 23.736-3.902 3.731 5.521 9.035 9.791 15.223 12.26l2.122.859c2.652 1.063 5.657.741 8.024-.859 2.365-1.601 3.783-4.271 3.783-7.128.005-1.598-.437-3.166-1.279-4.525-.84-1.361-2.045-2.457-3.479-3.168l-1.414-.707c1.005-3.648.945-7.507-.173-11.123-1.119-3.614-3.249-6.832-6.14-9.275 1.015.063 2.03.106 3.041.106v.001c4.02 0 8.025-.494 11.923-1.471 3.345-.836 6.776-1.26 10.223-1.264h8.52c2.786.01 5.517-.761 7.886-2.224 2.369-1.466 4.279-3.564 5.516-6.059l.747-1.492c.772-1.511 2.013-2.73 3.537-3.474v83.991zm141.481-88.425v-23.387l3.537 1.178v44.417l-3.537 1.178zm14.148 18.671-3.537 1.182v-39.707l3.537 1.181z" fill="#000"/></svg>

<svg xmlns="http://www.w3.org/2000/svg" width="256" height="256" fill="none" viewBox="0 0 256 256"><path fill="#000" d="M221.081 107.146L202.278 100.879V89.2777C202.278 69.5778 194.452 50.6844 180.522 36.7558C166.593 22.8255 147.7 15 128 15C108.3 15 89.4067 22.8255 75.4781 36.7558C61.5479 50.6844 53.7223 69.5774 53.7223 89.2777V100.879L34.9191 107.146C33.4759 107.628 32.5016 108.978 32.5 110.5V152.944C32.5016 154.466 33.4759 155.816 34.9191 156.298L53.7223 162.565V220.148C49.9311 220.148 46.4288 222.171 44.5325 225.454C42.6377 228.736 42.6377 232.782 44.5325 236.065C46.429 239.348 49.9311 241.37 53.7223 241.37H202.278C206.069 241.37 209.571 239.348 211.467 236.065C213.362 232.782 213.362 228.736 211.467 225.454C209.571 222.171 206.069 220.148 202.278 220.148V162.565L221.081 156.298C222.524 155.816 223.498 154.466 223.5 152.944V110.5C223.498 108.978 222.524 107.628 221.081 107.146ZM144.103 177.349L148.379 179.471C148.895 179.73 149.222 180.259 149.221 180.837C149.225 181.344 148.974 181.821 148.553 182.103C148.134 182.384 147.605 182.443 147.138 182.258L145.016 181.402C140.067 179.432 135.835 175.999 132.887 171.562C131.843 170.003 130.207 168.942 128.358 168.623C127.981 168.557 127.597 168.524 127.214 168.524C125.732 168.525 124.292 169.004 123.107 169.889C118.104 173.64 111.603 174.758 105.636 172.893C99.6672 171.028 94.9588 166.409 92.9817 160.477L91.4642 155.924C90.062 151.692 90.062 147.12 91.4642 142.888C96.4666 127.963 106.277 115.119 119.361 106.368C119.554 106.238 119.734 106.09 119.898 105.926L123.435 102.389C123.823 101.999 124.117 101.527 124.291 101.005L125.734 96.6616C127.215 92.2324 130.394 88.5705 134.572 86.4814C138.75 84.3924 143.585 84.0466 148.017 85.5198L150.522 86.3583C154.534 87.6957 157.918 90.4527 160.04 94.1098C162.164 97.7669 162.878 102.073 162.049 106.219L160.748 112.734C160.275 115.098 158.996 117.227 157.132 118.754C155.265 120.281 152.927 121.114 150.515 121.11H149.221C148.673 121.11 148.131 121.236 147.64 121.481L143.516 123.546C142.066 124.269 140.47 124.645 138.85 124.647H137.315C134.555 124.64 131.908 123.545 129.95 121.598L126.961 118.609H126.963C125.95 117.598 124.43 117.295 123.108 117.843C121.787 118.391 120.924 119.679 120.924 121.11V125.255C120.909 130.72 118.739 135.958 114.886 139.831C114.079 140.639 113.713 141.789 113.902 142.915C114.09 144.041 114.812 145.007 115.838 145.509L136.629 155.65C139.653 157.128 141.97 159.744 143.07 162.926C144.173 166.108 143.969 169.596 142.504 172.627C141.649 174.372 142.363 176.482 144.103 177.349H144.103ZM125.764 142.498L122.988 141.143C123.413 140.535 123.778 139.885 124.152 139.244L140.309 141.26H140.307C146.342 142.024 152.466 141.655 158.363 140.171L158.763 140.071L158.764 140.073C162.11 139.231 165.546 138.803 168.996 138.795H170.443C173.228 138.805 175.96 138.034 178.329 136.57C180.697 135.105 182.608 133.006 183.844 130.512L184.591 129.02C185.245 127.703 186.252 126.594 187.503 125.822C188.753 125.05 190.195 124.642 191.665 124.647H195.202V128.598C190.911 129.631 187.298 132.512 185.338 136.468L184.591 137.96C183.938 139.277 182.93 140.385 181.68 141.158C180.429 141.93 178.987 142.337 177.517 142.332H168.997C164.97 142.334 160.958 142.828 157.051 143.804C151.758 145.132 146.257 145.415 140.855 144.635L125.764 142.498ZM182.692 50.3695H175.714C168.422 41.3074 158.512 34.7164 147.336 31.4955L142.855 30.2086L144.383 24.1956C159.852 28.1038 173.428 37.3805 182.692 50.3697L182.692 50.3695ZM137.418 22.8154L135.849 29.1473H120.15L118.565 22.8154H118.566C124.816 21.8254 131.183 21.8254 137.432 22.8154H137.418ZM111.598 24.1766L113.144 30.2085L108.677 31.4812C97.4923 34.7024 87.5777 41.2996 80.2841 50.3697H73.3063C82.5705 37.3806 96.147 28.1038 111.615 24.1957L111.598 24.1766ZM39.5718 113.051L43.1088 111.87V151.576L39.5718 150.395V113.051ZM50.1829 153.931V109.514L53.7199 108.336V155.11L50.1829 153.931ZM205.812 230.759C205.812 231.697 205.44 232.597 204.776 233.261C204.113 233.924 203.213 234.296 202.275 234.296H53.7199C51.7667 234.296 50.1829 232.713 50.1829 230.759C50.1829 228.806 51.7667 227.222 53.7199 227.222H202.275C203.213 227.222 204.113 227.595 204.776 228.258C205.44 228.921 205.812 229.821 205.812 230.759ZM60.794 220.148V89.2781C60.7829 78.1634 63.5462 67.2224 68.8346 57.4449H82.0162C83.1294 57.4449 84.1779 56.9206 84.8458 56.03C91.2804 47.4826 100.32 41.2598 110.603 38.3024L117.886 36.2229H138.11L145.392 38.3024C155.675 41.26 164.715 47.483 171.15 56.03C171.818 56.9206 172.866 57.4449 173.979 57.4449H187.161C192.449 67.2224 195.212 78.1634 195.202 89.2781V117.574H191.665C188.879 117.565 186.148 118.335 183.779 119.799C181.41 121.265 179.5 123.363 178.263 125.858L177.516 127.35C176.862 128.667 175.855 129.775 174.604 130.548C173.354 131.32 171.912 131.727 170.442 131.722H168.996C164.969 131.724 160.957 132.218 157.05 133.194L156.648 133.294C151.596 134.558 146.354 134.874 141.187 134.227L127.014 132.458C127.341 131.282 127.589 130.085 127.758 128.875C130.6 130.724 133.916 131.714 137.308 131.726H138.843C141.557 131.721 144.235 131.091 146.667 129.883L150.055 128.185H150.515C154.557 128.185 158.476 126.783 161.603 124.22C164.729 121.658 166.872 118.091 167.666 114.126L168.967 107.611C170.139 101.774 169.139 95.7123 166.153 90.5632C163.168 85.4125 158.404 81.5327 152.757 79.6506L150.252 78.8121C144.042 76.7467 137.265 77.2299 131.41 80.1575C125.555 83.085 121.102 88.217 119.027 94.424L117.846 97.9784L115.144 100.68V100.682C100.902 110.306 90.2226 124.352 84.7574 140.65C82.8752 146.336 82.8752 152.479 84.7574 158.165L86.2748 162.717C88.9592 170.761 95.326 177.036 103.406 179.603C111.487 182.171 120.308 180.721 127.142 175.701C130.873 181.222 136.177 185.492 142.365 187.961L144.487 188.82C147.139 189.883 150.144 189.561 152.511 187.961C154.876 186.36 156.294 183.69 156.294 180.833C156.299 179.235 155.857 177.667 155.015 176.308C154.175 174.947 152.97 173.851 151.536 173.14L150.122 172.433C151.127 168.785 151.067 164.926 149.949 161.31C148.83 157.696 146.7 154.478 143.809 152.035C144.824 152.098 145.839 152.141 146.85 152.141V152.142C150.87 152.142 154.875 151.648 158.773 150.671C162.118 149.835 165.549 149.411 168.996 149.407H177.516C180.302 149.417 183.033 148.646 185.402 147.183C187.771 145.717 189.681 143.619 190.918 141.124L191.665 139.632C192.437 138.121 193.678 136.902 195.202 136.158V220.149L60.794 220.148ZM202.275 131.723V108.336L205.812 109.514V153.931L202.275 155.109V131.723ZM216.423 150.394L212.886 151.576V111.869L216.423 113.05V150.394Z"/></svg>
